X:3256
T: Khasene Jig #1
O:england
R: jig
N: Originally in 2/4 but mostly triplets.
D: Shanachie 21002 "Zev Feldman and Andy Statman"
B: Mel Bay's Klezmer Collection (Stacy Phillips)
M: 6/8
L: 1/8
K: Em
B, E2G \
| "Em"B3- B2c | "F#"^A3- A2B | "Em"G3- G2B | "B7"F3- F2B, \
| "Em"EFG "B7"FGA | "Em"GAB "Am"ABc | "Em"B6 | zBd c2B |
| "Em"e_ed _dcB | "D"d_dc B_BA | "C"cBA GFE | "B7"FGA GFE \
| FAG- G2F | GFE ^DEF | "Em"E6- | E2 :|
|: D G2B \
| "G"d6 | zBd "D7"cBA | "G"AcB- B3 | zGB "D7"AGA \
| "G"GFG "D7"AGA | "G"BAB "D7"d2c | "G"B6 | z2D G2B |
| "G"d6 | z2g "D7"f2e | "G"d6 | z3 "C"c3 \
| "G"Bcd "C"cBA | "G"GFE "D7"DEF | "G"G6- | Gz :|
|: z "B7"F3 \
| "Em "E3 "Am"cBA | "Em"B3- B2A | G3 BAG | "Am"A3- A2G \
| ABc BAG | "B7"FGA GFE | "Am"^DEF EDC | "B7"B,2- B,2B, |
| "Em"E3 "Am"cBA | "Em"B3- B2A | G3 BAG | "Am"A3- A2G \
| A3- A2G | "B7"B2A A2G | BAG GFE | "Em"E2 :|


